X: 33545
T: Rake, The
R: hornpipe
M: 4/4
K: Gmajor
d^c =cB2G|D2 GB2G|d2 Bg fg|ag fg2d|B2 GF2E|
F2 GA2B|cB Ad2^c|d2 ef2d|c2 AB2G|
D2 GB2G|d2 Bg fg|ag fg2d|B2 GB cd|
g2 dc2A|F2 GA2G|G2 F2<G2|[dB][^cA] [=c^G]B2=G|
D2 GB2G|d2 Bg fg|ag fg2d|B2 GF2E|
F2 GA2B|cB Ad2^c|d2 ef2d|c2 AB2G|
D2 GB2G|d2 Bg fg|ag fg2d|B2 GB cd|
g2 dc2A|F2 GA2G|G2 F2<G2|A2 G2<F2|
D2>D2 FA|d2 cB2G|G2 F2<G2|A2 G2<F2|
D3d2^c|e2 df2e|d2 ^c2<d2|A2 G2<F2|
D2>D2 FA|d2 cB2G|G2 F2<G2|A2 GF2A|
d2 fe2d|^c2 ed5|c4|B2 GD2G|
B2 Gd2B|gf ga gf|g2 dB2G|F2 EF2G|
A2 Bc BA|d2 ^cd2e|f2 dc2A|B2 GD2G|
B2 Gd2B|gf ga gf|g2 dB2G|Bc dg2d|
c2 AF2G|A2 GG2F|G4|

